X:37
T:Jigg. TJD.37
M:6/8
L:1/8
Q:1/4=120
S:T.J.Dixon MS1, Lincolnshire, early 19thC
R:jig
A:Lincolnshire, Holton le Moor
Z:vmp.R.Greig2010
K:C
e/f/|geg fdf|efe d2c|geg fef|ece d2:|!
|:c/d/|ece d2c|ece d2c|geg fdf|efd c2:|]

